google-translate.svg

<svg fill="currentColor" viewBox="0 0 24 24"><path d="M20 5h-9.12L10 2H4a2 2 0 0 0-2 2v13a2 2 0 0 0 2 2h7l1 3h8a2 2 0 0 0 2-2V7a2 2 0 0 0-2-2M7.17 14.59a4.09 4.09 0 0 1-4.09-4.09 4.09 4.09 0 0 1 4.09-4.09c1.04 0 1.99.37 2.74 1.09l.09.04-1.25 1.18-.06-.05c-.29-.27-.78-.59-1.52-.59-1.31 0-2.38 1.09-2.38 2.42s1.07 2.42 2.38 2.42c1.37 0 1.96-.87 2.12-1.46H7.08V9.91h3.95l.01.09c.04.19.05.38.05.59 0 2.35-1.59 4-3.92 4m6.03-1.71c.33.62.74 1.18 1.19 1.7l-.54.53zm.77-.76H13l-.33-1.04h3.99s-.34 1.31-1.56 2.74c-.52-.62-.89-1.23-1.13-1.7M21 20a1 1 0 0 1-1 1h-7l2-2-.81-2.77.92-.92L17.79 18l.71-.73-2.69-2.68c.9-1.03 1.6-2.25 1.92-3.51H19v-1.04h-3.64V9h-1.04v1.04h-1.96L11.18 6H20a1 1 0 0 1 1 1z"/></svg>

<svg  viewBox="0 0 24 24" fill="currentColor"><path  d="M20,5H10.88L10,2H4A2,2 0 0,0 2,4V17A2,2 0 0,0 4,19H11L12,22H20A2,2 0 0,0 22,20V7A2,2 0 0,0 20,5M7.17,14.59A4.09,4.09 0 0,1 3.08,10.5A4.09,4.09 0 0,1 7.17,6.41C8.21,6.41 9.16,6.78 9.91,7.5L10,7.54L8.75,8.72L8.69,8.67C8.4,8.4 7.91,8.08 7.17,8.08C5.86,8.08 4.79,9.17 4.79,10.5C4.79,11.83 5.86,12.92 7.17,12.92C8.54,12.92 9.13,12.05 9.29,11.46H7.08V9.91H11.03L11.04,10C11.08,10.19 11.09,10.38 11.09,10.59C11.09,12.94 9.5,14.59 7.17,14.59M13.2,12.88C13.53,13.5 13.94,14.06 14.39,14.58L13.85,15.11L13.2,12.88M13.97,12.12H13L12.67,11.08H16.66C16.66,11.08 16.32,12.39 15.1,13.82C14.58,13.2 14.21,12.59 13.97,12.12M21,20A1,1 0 0,1 20,21H13L15,19L14.19,16.23L15.11,15.31L17.79,18L18.5,17.27L15.81,14.59C16.71,13.56 17.41,12.34 17.73,11.08H19V10.04H15.36V9H14.32V10.04H12.36L11.18,6H20A1,1 0 0,1 21,7V20Z"/></svg>
